default/department_icons/corporate_services.svg

<svg fill="#000000" height="24" viewBox="0 0 24 24" width="24" xmlns="http://www.w3.org/2000/svg">
    <path d="M15 11V5l-3-3-3 3v2H3v14h18V11h-6zm-8 8H5v-2h2v2zm0-4H5v-2h2v2zm0-4H5V9h2v2zm6 8h-2v-2h2v2zm0-4h-2v-2h2v2zm0-4h-2V9h2v2zm0-4h-2V5h2v2zm6 12h-2v-2h2v2zm0-4h-2v-2h2v2z"/>
    <path d="M0 0h24v24H0z" fill="none"/>
</svg>

<?xml version="1.0" encoding="UTF-8"?><!DOCTYPE svg PUBLIC "-//W3C//DTD SVG 1.1//EN" "http://www.w3.org/Graphics/SVG/1.1/DTD/svg11.dtd"><svg xmlns="http://www.w3.org/2000/svg" xmlns:xlink="http://www.w3.org/1999/xlink" version="1.1" width="24" height="24" viewBox="0 0 24 24"><path d="M19,15H17V13H19M19,19H17V17H19M13,7H11V5H13M13,11H11V9H13M13,15H11V13H13M13,19H11V17H13M7,11H5V9H7M7,15H5V13H7M7,19H5V17H7M15,11V5L12,2L9,5V7H3V21H21V11H15Z" /></svg>
